asset/logos/vscode.svg

<svg xmlns="http://www.w3.org/2000/svg" viewBox="0 0 256 256" fill="none">
<mask id="mask0" mask-type="alpha" maskUnits="userSpaceOnUse" x="0" y="0" width="256" height="256">
<path fill-rule="evenodd" clip-rule="evenodd" d="M181.534 254.252C185.566 255.823 190.164 255.722 194.234 253.764L246.94 228.403C252.478 225.738 256 220.132 256 213.983V42.0181C256 35.8689 252.478 30.2638 246.94 27.5988L194.234 2.23681C188.893 -0.333132 182.642 0.296344 177.955 3.70418C177.285 4.191 176.647 4.73454 176.049 5.33354L75.149 97.3862L31.1992 64.0247C27.1079 60.9191 21.3853 61.1735 17.5855 64.63L3.48936 77.4525C-1.15853 81.6805 -1.16386 88.9926 3.47785 93.2274L41.5926 128L3.47785 162.773C-1.16386 167.008 -1.15853 174.32 3.48936 178.548L17.5855 191.37C21.3853 194.827 27.1079 195.081 31.1992 191.976L75.149 158.614L176.049 250.667C177.645 252.264 179.519 253.467 181.534 254.252ZM192.039 69.8853L115.479 128L192.039 186.115V69.8853Z" fill="white"/>
</mask>
<g mask="url(#mask0)">
<path d="M246.94 27.6383L194.193 2.24138C188.088 -0.698302 180.791 0.541721 175.999 5.33332L3.32371 162.773C-1.32082 167.008 -1.31548 174.32 3.33523 178.548L17.4399 191.37C21.2421 194.827 26.9682 195.081 31.0619 191.976L239.003 34.2269C245.979 28.9347 255.999 33.9103 255.999 42.6667V42.0543C255.999 35.9078 252.478 30.3047 246.94 27.6383Z" fill="#0065A9"/>
<g filter="url(#filter0_d)">
<path d="M246.94 228.362L194.193 253.759C188.088 256.698 180.791 255.458 175.999 250.667L3.32371 93.2272C-1.32082 88.9925 -1.31548 81.6802 3.33523 77.4523L17.4399 64.6298C21.2421 61.1733 26.9682 60.9188 31.0619 64.0245L239.003 221.773C245.979 227.065 255.999 222.09 255.999 213.333V213.946C255.999 220.092 252.478 225.695 246.94 228.362Z" fill="#007ACC"/>
</g>
<g filter="url(#filter1_d)">
<path d="M194.196 253.763C188.089 256.7 180.792 255.459 176 250.667C181.904 256.571 192 252.389 192 244.039V11.9606C192 3.61057 181.904 -0.571175 176 5.33321C180.792 0.541166 188.089 -0.700607 194.196 2.23648L246.934 27.5985C252.476 30.2635 256 35.8686 256 42.0178V213.983C256 220.132 252.476 225.737 246.934 228.402L194.196 253.763Z" fill="#1F9CF0"/>
</g>
<g style="mix-blend-mode:overlay" opacity="0.25">
<path fill-rule="evenodd" clip-rule="evenodd" d="M181.378 254.252C185.41 255.822 190.008 255.722 194.077 253.764L246.783 228.402C252.322 225.737 255.844 220.132 255.844 213.983V42.0179C255.844 35.8687 252.322 30.2636 246.784 27.5986L194.077 2.23665C188.737 -0.333299 182.486 0.296177 177.798 3.70401C177.129 4.19083 176.491 4.73437 175.892 5.33337L74.9927 97.386L31.0429 64.0245C26.9517 60.9189 21.229 61.1734 17.4292 64.6298L3.33311 77.4523C-1.31478 81.6803 -1.32011 88.9925 3.3216 93.2273L41.4364 128L3.3216 162.773C-1.32011 167.008 -1.31478 174.32 3.33311 178.548L17.4292 191.37C21.229 194.827 26.9517 195.081 31.0429 191.976L74.9927 158.614L175.892 250.667C177.488 252.264 179.363 253.467 181.378 254.252ZM191.883 69.8851L115.323 128L191.883 186.115V69.8851Z" fill="url(#paint0_linear)"/>
</g>
</g>
<defs>
<filter id="filter0_d" x="-21.4896" y="40.5225" width="298.822" height="236.149" filterUnits="userSpaceOnUse" color-interpolation-filters="sRGB">
<feFlood flood-opacity="0" result="BackgroundImageFix"/>
<feColorMatrix in="SourceAlpha" type="matrix" values="0 0 0 0 0 0 0 0 0 0 0 0 0 0 0 0 0 0 127 0"/>
<feOffset/>
<feGaussianBlur stdDeviation="10.6667"/>
<feColorMatrix type="matrix" values="0 0 0 0 0 0 0 0 0 0 0 0 0 0 0 0 0 0 0.25 0"/>
<feBlend mode="overlay" in2="BackgroundImageFix" result="effect1_dropShadow"/>
<feBlend mode="normal" in="SourceGraphic" in2="effect1_dropShadow" result="shape"/>
</filter>
<filter id="filter1_d" x="154.667" y="-20.6735" width="122.667" height="297.347" filterUnits="userSpaceOnUse" color-interpolation-filters="sRGB">
<feFlood flood-opacity="0" result="BackgroundImageFix"/>
<feColorMatrix in="SourceAlpha" type="matrix" values="0 0 0 0 0 0 0 0 0 0 0 0 0 0 0 0 0 0 127 0"/>
<feOffset/>
<feGaussianBlur stdDeviation="10.6667"/>
<feColorMatrix type="matrix" values="0 0 0 0 0 0 0 0 0 0 0 0 0 0 0 0 0 0 0.25 0"/>
<feBlend mode="overlay" in2="BackgroundImageFix" result="effect1_dropShadow"/>
<feBlend mode="normal" in="SourceGraphic" in2="effect1_dropShadow" result="shape"/>
</filter>
<linearGradient id="paint0_linear" x1="127.844" y1="0.659988" x2="127.844" y2="255.34" gradientUnits="userSpaceOnUse">
<stop stop-color="white"/>
<stop offset="1" stop-color="white" stop-opacity="0"/>
</linearGradient>
</defs>
</svg>

<svg xmlns="http://www.w3.org/2000/svg" fill="none" viewBox="0 0 256 256"><mask id="a" width="256" height="256" x="0" y="0" mask-type="alpha" maskUnits="userSpaceOnUse"><path fill="#fff" fill-rule="evenodd" d="M181.534 254.252a15.93 15.93 0 0 0 12.7-.488l52.706-25.361a16 16 0 0 0 9.06-14.42V42.018c0-6.15-3.522-11.754-9.06-14.42L194.234 2.238a15.94 15.94 0 0 0-18.185 3.097l-100.9 92.052-43.95-33.361a10.655 10.655 0 0 0-13.614.605L3.49 77.453c-4.648 4.227-4.653 11.54-.011 15.774L41.593 128 3.478 162.773c-4.642 4.235-4.637 11.547.011 15.775l14.097 12.822a10.655 10.655 0 0 0 13.613.606l43.95-33.362 100.9 92.053a15.9 15.9 0 0 0 5.485 3.585m10.505-184.367L115.479 128l76.56 58.115z" clip-rule="evenodd"/></mask><g mask="url(#a)"><path fill="#0065A9" d="M246.94 27.638 194.193 2.241a15.95 15.95 0 0 0-18.194 3.092L3.324 162.773c-4.645 4.235-4.64 11.547.011 15.775L17.44 191.37a10.67 10.67 0 0 0 13.622.606l207.941-157.75c6.976-5.291 16.996-.316 16.996 8.44v-.612a16 16 0 0 0-9.059-14.416"/><g filter="url(#b)"><path fill="#007ACC" d="m246.94 228.362-52.747 25.397a15.95 15.95 0 0 1-18.194-3.092L3.324 93.227c-4.645-4.234-4.64-11.547.011-15.775L17.44 64.63a10.67 10.67 0 0 1 13.622-.605l207.941 157.748c6.976 5.292 16.996.317 16.996-8.44v.613a16 16 0 0 1-9.059 14.416"/></g><g filter="url(#c)"><path fill="#1F9CF0" d="M194.196 253.763A15.955 15.955 0 0 1 176 250.667c5.904 5.904 16 1.722 16-6.628V11.961c0-8.35-10.096-12.532-16-6.628a15.955 15.955 0 0 1 18.196-3.097L246.934 27.6A16 16 0 0 1 256 42.018v171.965a16 16 0 0 1-9.066 14.419z"/></g><path fill="url(#d)" fill-rule="evenodd" d="M181.378 254.252a15.94 15.94 0 0 0 12.699-.488l52.706-25.362a16 16 0 0 0 9.061-14.419V42.018c0-6.15-3.522-11.754-9.06-14.42L194.077 2.238a15.94 15.94 0 0 0-18.185 3.096l-100.9 92.053-43.95-33.361a10.655 10.655 0 0 0-13.613.605L3.333 77.452c-4.648 4.228-4.653 11.54-.011 15.775L41.436 128 3.322 162.773c-4.642 4.235-4.637 11.547.011 15.775L17.43 191.37a10.655 10.655 0 0 0 13.614.606l43.95-33.362 100.899 92.053a15.9 15.9 0 0 0 5.486 3.585m10.505-184.367L115.323 128l76.56 58.115z" clip-rule="evenodd" opacity=".25" style="mix-blend-mode:overlay"/></g><defs><filter id="b" width="298.822" height="236.149" x="-21.49" y="40.523" color-interpolation-filters="sRGB" filterUnits="userSpaceOnUse"><feFlood flood-opacity="0" result="BackgroundImageFix"/><feColorMatrix in="SourceAlpha" values="0 0 0 0 0 0 0 0 0 0 0 0 0 0 0 0 0 0 127 0"/><feOffset/><feGaussianBlur stdDeviation="10.667"/><feColorMatrix values="0 0 0 0 0 0 0 0 0 0 0 0 0 0 0 0 0 0 0.25 0"/><feBlend in2="BackgroundImageFix" mode="overlay" result="effect1_dropShadow"/><feBlend in="SourceGraphic" in2="effect1_dropShadow" result="shape"/></filter><filter id="c" width="122.667" height="297.347" x="154.667" y="-20.674" color-interpolation-filters="sRGB" filterUnits="userSpaceOnUse"><feFlood flood-opacity="0" result="BackgroundImageFix"/><feColorMatrix in="SourceAlpha" values="0 0 0 0 0 0 0 0 0 0 0 0 0 0 0 0 0 0 127 0"/><feOffset/><feGaussianBlur stdDeviation="10.667"/><feColorMatrix values="0 0 0 0 0 0 0 0 0 0 0 0 0 0 0 0 0 0 0.25 0"/><feBlend in2="BackgroundImageFix" mode="overlay" result="effect1_dropShadow"/><feBlend in="SourceGraphic" in2="effect1_dropShadow" result="shape"/></filter><linearGradient id="d" x1="127.844" x2="127.844" y1=".66" y2="255.34" gradientUnits="userSpaceOnUse"><stop stop-color="#fff"/><stop offset="1" stop-color="#fff" stop-opacity="0"/></linearGradient></defs></svg>
